X: 20992
T: Jockey's Dream
%R: air, reel
B: James Oswald "The Caledonian Pocket Companion" v.2 p.99 #2
Z: 2019 John Chambers <jc:trillian.mit.edu>
M: C|
L: 1/8
K: Gm
d2 |"_Slow"\
{c}B2AG {B}A2(G^F) | G3A (BA)(Bc) | d2(cB) (cd)(fB) | {B2}A6 d2 |\
(cB)(AG) {B}A2(G^F) | G3A (Bc)d2 | e2dc d2T^f2 | g6 :|
|: d2 |\
g2(ga) b2f2 | (ed)(cB) f2(cB) | A2(ed) (cB)(AG) | (^FG)(AF) D2E^F |\
G2(AB) c2F2 | B2(cd) {f}e2(dc) | d2(ge) (dc)(BA) | G6 :|


